!!!Genre:	Freylekhs
!!!Mode:	Freygish
!!!Listening/dance:	dance
!!!:	*c:
!!!One_Mode:	no
**kern
*part1
*staff1
*clefG2
*k[b-e-a-]
*G:frey
*M2/4
*>A
=1-
8gL
16ddL
16ddJJ
16ddLL
16dd
16dd
16ddJJ
=2
(>16ddLL
16ee-)
(>16ee-
16ddJJ)
(>16ddLL
16cc)
(>16cc
16bnJJ)
=3
8.ccL
16bnJk
16ccLL
16ee-
16dd
16ccJJ
=4
16ccLL
16ddJJ
4bn
16a-LL
16gJJ
=5
8gL
16ddL
16ddJJ
16ddLL
16dd
16dd
16ddJJ
=6
(>16ddLL
16ee-)
(>16ee-
16ddJJ)
(>16ddLL
16cc)
(>16cc
16bnJJ)
=7
>8.ccL
16bnJk
16ccLL
(>16ee-
16dd)
16ccJJ
=8
(>16ccLL
16bnJJ)
4b
16a-LL
16gJJ
=9!|:
*>B
8.ccL
16bnJk
(<16bLL
16a-)
(<16a-
16gJJ)
=10
4.bn
16a-LL
16gJJ
=11
8.ccL
16bnJk
(<16bLL
16a-)
(<16a-
16gJJ)
=12
8gL
(8qff#X/
8ggJ)
8ggL
8ggJ
=13:|!
4g
4gg
*>bM
*-
